packages/icons/svg/Outline/credit-card.svg

<svg fill="none" height="24" viewBox="0 0 24 24" width="24" xmlns="http://www.w3.org/2000/svg"><path clip-rule="evenodd" d="m11 15.0001h-4.00002c-.55 0-1-.45-1-1s.45-1 1-1h4.00002c.55 0 1 .45 1 1s-.45 1-1 1zm6 0h-2c-.55 0-1-.45-1-1s.45-1 1-1h2c.55 0 1 .45 1 1s-.45 1-1 1zm3 .9999c0 .551-.448 1-1 1h-13.99998c-.552 0-1-.449-1-1v-5h15.99998zm-15.99998-7.99993c0-.55101.448-1.00001 1-1.00001h13.99998c.552 0 1 .449 1 1.00001v1h-15.99998zm14.99998-3.00007h-14c-1.654 0-3 1.346-3 3v8c0 1.654 1.346 3 3 3h14c1.654 0 3-1.346 3-3v-8c0-1.654-1.346-3-3-3z" fill="#6b7280" fill-rule="evenodd"/></svg>

<svg width="24" height="24" viewBox="0 0 24 24" fill="none" xmlns="http://www.w3.org/2000/svg">
<g id="Icon/Outline/credit-card">
<path id="Mask" fill-rule="evenodd" clip-rule="evenodd" d="M11 15H7C6.45 15 6 14.55 6 14C6 13.45 6.45 13 7 13H11C11.55 13 12 13.45 12 14C12 14.55 11.55 15 11 15ZM17 15H15C14.45 15 14 14.55 14 14C14 13.45 14.45 13 15 13H17C17.55 13 18 13.45 18 14C18 14.55 17.55 15 17 15ZM20 16C20 16.551 19.552 17 19 17H5C4.448 17 4 16.551 4 16V11H20V16ZM4 8C4 7.449 4.448 7 5 7H19C19.552 7 20 7.449 20 8V9H4V8ZM19 5H5C3.346 5 2 6.346 2 8V16C2 17.654 3.346 19 5 19H19C20.654 19 22 17.654 22 16V8C22 6.346 20.654 5 19 5Z" fill="#000000"/>
</g>
</svg>
